!!!COM: Bach, Johann Sebastian
!!!CDT: 1685/02/21/-1750/07/28/
!!!OTL@@DE:	O Haupt voll Blut und Wunden
!!!SCT: BWV 244/44
!!!PC#:	80
!!!AGN: chorale
**harm	**kern	**kern	**kern	**kern
*	*ICvox	*ICvox	*ICvox	*ICvox
*	*Ibass	*Itenor	*Ialto	*Isoprn
*	*I"Bass	*I"Tenor	*I"Alto	*I"Soprano
*>[A,A,B]	*>[A,A,B]	*>[A,A,B]	*>[A,A,B]	*>[A,A,B]
*>norep[A,B]	*>norep[A,B]	*>norep[A,B]	*>norep[A,B]	*>norep[A,B]
*>A	*>A	*>A	*>A	*>A
*	*	*oclefC4	*oclefC3	*oclefC1
*	*clefF4	*clefGv2	*clefG2	*clefG2
*k[f#c#]	*k[f#c#]	*k[f#c#]	*k[f#c#]	*k[f#c#]
*D:	*D:	*D:	*D:	*D:
*M4/4	*M4/4	*M4/4	*M4/4	*M4/4
*met(c)	*met(c)	*met(c)	*met(c)	*met(c)
*MM100	*MM100	*MM100	*MM100	*MM100
I	4D	4A	4d	4f#
=1	=1	=1	=1	=1
IV	4G	4G	4d	4b
I6	4F#	4A	4d	4a
IV6	8BBL	8BL	8dL	8gL
V65	8C#J	8AJ	8eJ	8gJ
I	4D	4A	4d	4f#
=2	=2	=2	=2	=2
ii65	4GG	4B	4d	4e
V	4AA	4A	4c#	4e
I;	4D;	4A;	4d;	4f#;
b:viio6	4C#	4A#	4e	4cc#
=3	=3	=3	=3	=3
i	4BB	4B	4d	4dd
i6	4D	4B	4f#	4dd
V	4F#	4A#	4f#	4cc#
V7	4FF#	4A#	4e	4cc#
=4	=4	=4	=4	=4
i;	2.BB;	2.B;	2.d;	2.b;
*>B	*>B	*>B	*>B	*>B
i	4BB	4B	4f#	4dd
=5	=5	=5	=5	=5
D:viio6	4E	4G	4e	4cc#
I6	4F#	4d	4f#	4a
IV6	4G	4B	4d	4b
viio6	4E	4G	4g	4cc#
=6	=6	=6	=6	=6
IV64	2D	2B	2g	2dd
I;	4D;	4A;	4f#;	4dd;
I	4D	4d	4f#	4a
=7	=7	=7	=7	=7
IV	4G	4d	4g	4b
e:viio7	4D#	4c	4f#	4a
i	4E	4B	4e	4g
i6	4G	4B	4e	4g
=8	=8	=8	=8	=8
V;	2.B;	2.B;	2.d#;	2.f#;
A:V65	4G#	4B	4e	4dd
=9	=9	=9	=9	=9
I	4A	4A	4e	4cc#
V6	4G#	4B	4e	4ee
IV6	4F#	4A	4f#	4dd
I64	4E	4c#	4a	4cc#
=10	=10	=10	=10	=10
V65/V	4D#	4f#	4a	4b
V	4E	4e	4g#	4b
I;	4AA;	4e;	4a;	4cc#;
IV	4D	4A	4d	4f#
=11	=11	=11	=11	=11
D:ii	8EL	8GL	8BL	8gnXL
viio6	8EJ	8GJ	8c#J	8gJ
I6	4F#	4A	4d	4f#
V(54)	4A	4A	4d	4e
V	4AA	4A	4c#	4a
=12	=12	=12	=12	=12
I;	2.D;	2.A;	2.d;	2.f#;
==	==	==	==	==
*-	*-	*-	*-	*-
!!!YOR1: 371 vierstimmige Choralges&auml;nge von Johann Sebastian Bach, 
!!!YOR2: 4th ed. by Alfred D&ouml;rffel (Leipzig: Breitkopf und H&auml;rtel, 
!!!YOR2: c.1875). 178 pp. Plate "V.A.10".  reprint: J.S. Bach, 371 Four-Part 
!!!YOR4: Chorales (New York: Associated Music Publishers, Inc., c.1940).
!!!SMS: B&H, 4th ed, Alfred D&ouml;rffel, c.1875, plate V.A.10
!!!EED:  Craig Stuart Sapp
!!!EEV:  2009/05/22
